Newaita-dark/apps/48/notepadqq.svg

<svg height="48pt" viewBox="0 0 48 48" width="48pt" xmlns="http://www.w3.org/2000/svg" xmlns:xlink="http://www.w3.org/1999/xlink"><linearGradient id="a" gradientUnits="userSpaceOnUse" x1="23.81478" x2="23.81478" y1="42.0509045" y2="44.03547050005"><stop offset="0" stop-opacity=".27451"/><stop offset="1" stop-opacity="0"/></linearGradient><linearGradient id="b"><stop offset="0" stop-opacity=".313725"/><stop offset=".222222" stop-opacity=".27451"/><stop offset="1" stop-opacity="0"/></linearGradient><radialGradient id="c" cx="450.908936" cy="189.579361" gradientTransform="matrix(.00000026 -.117199 -.210958 -.00000015 75.219128 95.392999)" gradientUnits="userSpaceOnUse" r="21.166656" xlink:href="#b"/><radialGradient id="d" cx="450.908936" cy="189.579361" gradientTransform="matrix(-.00000026 .117199 .210958 .00000015 -27.589573 -11.29122)" gradientUnits="userSpaceOnUse" r="21.166656" xlink:href="#b"/><radialGradient id="e" cx="450.908936" cy="189.579361" gradientTransform="matrix(-.00000026 -.117199 .210958 -.00000015 -27.589573 95.392999)" gradientUnits="userSpaceOnUse" r="21.166656" xlink:href="#b"/><radialGradient id="f" cx="450.908936" cy="189.579361" gradientTransform="matrix(.00000026 .117199 -.210958 .00000015 75.219126 -11.291219)" gradientUnits="userSpaceOnUse" r="21.166656" xlink:href="#b"/><linearGradient id="g" gradientTransform="matrix(.113024 0 0 .326118 -8.78102 50.462022)" gradientUnits="userSpaceOnUse" x1="323.513245" x2="323.513245" y1="-141.414581" y2="-25.791676"><stop offset="0" stop-color="#cfd8dc"/><stop offset="1" stop-color="#eceff1"/></linearGradient><linearGradient id="h" gradientUnits="userSpaceOnUse" x1="960" x2="960" y1="495.118103" y2="175.118134"><stop offset="0" stop-color="#4caf50"/><stop offset="1" stop-color="#66bb6a"/></linearGradient><path d="m11.90625 42.050781h23.816406v1.984375h-23.816406zm0 0" fill="url(#a)"/><path d="m35.722656 42.050781h3.96875v-1.984375h-3.96875zm0 0" fill="url(#c)"/><path d="m11.90625 42.050781h-3.96875v1.984375h3.96875zm0 0" fill="url(#d)"/><path d="m11.90625 42.050781h-3.96875v-1.984375h3.96875zm0 0" fill="url(#e)"/><path d="m35.722656 42.050781h3.96875v1.984375h-3.96875zm0 0" fill="url(#f)"/><path d="m9.921875 4.34375h27.785156c1.097657 0 1.984375.890625 1.984375 1.984375v33.738281c0 1.097656-.886718 1.984375-1.984375 1.984375h-27.785156c-1.09375 0-1.984375-.886719-1.984375-1.984375v-33.738281c0-1.09375.890625-1.984375 1.984375-1.984375zm0 0" fill="url(#g)"/><path d="m399.961827 175.101398c-44.247746 0-79.992366 35.74462-79.992366 79.992365v239.977096h1280.035311v-239.977096c0-44.247745-35.74462-79.992365-79.992366-79.992365zm0 0" fill="url(#h)" stroke="#212121" stroke-linecap="round" stroke-linejoin="round" stroke-width="11.338583" transform="scale(.0248071)"/><path d="m13.890625 21.214844h16.871094c.546875 0 .992187.382812.992187.855468v.269532c0 .472656-.445312.859375-.992187.859375h-16.871094c-.546875 0-.992187-.386719-.992187-.859375v-.269532c0-.472656.445312-.855468.992187-.855468zm0 0" fill="#f06292" fill-opacity=".905882"/><path d="m9.921875 41.9375c-1.097656 0-1.984375-.882812-1.984375-1.984375v-.246094c0 1.097657.886719 1.984375 1.984375 1.984375h27.785156c1.097657 0 1.984375-.886718 1.984375-1.984375v.246094c0 1.101563-.886718 1.984375-1.984375 1.984375zm0 0" fill-opacity=".196078"/><path d="m13.890625 16.25h19.847656c.546875 0 .992188.324219.992188.726562v.535157c0 .402343-.445313.722656-.992188.722656h-19.847656c-.546875 0-.992187-.320313-.992187-.722656v-.535157c0-.402343.445312-.726562.992187-.726562zm0 0" fill="#424242" fill-opacity=".905882"/><path d="m13.890625 26.175781h19.847656c.546875 0 .992188.402344.992188.902344v.179687c0 .496094-.445313.902344-.992188.902344h-19.847656c-.546875 0-.992187-.40625-.992187-.902344v-.179687c0-.5.445312-.902344.992187-.902344zm0 0" fill="#424242" fill-opacity=".905882"/><path d="m9.921875 4.457031c-1.097656 0-1.984375.882813-1.984375 1.984375v.246094c0-1.097656.886719-1.984375 1.984375-1.984375h27.785156c1.097657 0 1.984375.886719 1.984375 1.984375v-.246094c0-1.101562-.886718-1.984375-1.984375-1.984375zm0 0" fill="#fff" fill-opacity=".392157"/><path d="m9.921875 4.203125c-1.175781 0-2.125.949219-2.125 2.125v33.738281c0 1.175782.949219 2.125 2.125 2.125h27.785156c1.175781 0 2.125-.949218 2.125-2.125v-33.738281c0-1.175781-.949219-2.125-2.125-2.125zm0 .28125h27.785156c1.023438 0 1.84375.820313 1.84375 1.84375v33.738281c0 1.023438-.820312 1.84375-1.84375 1.84375h-27.785156c-1.023437 0-1.84375-.820312-1.84375-1.84375v-33.738281c0-1.023437.820313-1.84375 1.84375-1.84375zm0 0" fill="#212121"/><path d="m13.890625 31.136719h12.902344c.546875 0 .992187.34375.992187.765625v.449218c0 .425782-.445312.769532-.992187.769532h-12.902344c-.546875 0-.992187-.34375-.992187-.769532v-.449218c0-.421875.445312-.765625.992187-.765625zm0 0" fill="#f57c00" fill-opacity=".905882"/></svg>

<?xml version="1.0" encoding="UTF-8"?>
<svg xmlns="http://www.w3.org/2000/svg" xmlns:xlink="http://www.w3.org/1999/xlink" width="48pt" height="48pt" viewBox="0 0 48 48" version="1.1">
<defs>
<linearGradient id="linear0" gradientUnits="userSpaceOnUse" x1="254" y1="233.5" x2="254" y2="254.666672" gradientTransform="matrix(0.093759,0,0,0.093759,-0.00000572259,20.158178)">
<stop offset="0" style="stop-color:rgb(0%,0%,0%);stop-opacity:0.27451;"/>
<stop offset="1" style="stop-color:rgb(0%,0%,0%);stop-opacity:0;"/>
</linearGradient>
<radialGradient id="radial0" gradientUnits="userSpaceOnUse" cx="450.908936" cy="189.579361" fx="450.908936" fy="189.579361" r="21.166656" gradientTransform="matrix(0.000000261256,-0.117199,-0.210958,-0.000000152308,75.219128,95.392999)">
<stop offset="0" style="stop-color:rgb(0%,0%,0%);stop-opacity:0.313725;"/>
<stop offset="0.222222" style="stop-color:rgb(0%,0%,0%);stop-opacity:0.27451;"/>
<stop offset="1" style="stop-color:rgb(0%,0%,0%);stop-opacity:0;"/>
</radialGradient>
<radialGradient id="radial1" gradientUnits="userSpaceOnUse" cx="450.908936" cy="189.579361" fx="450.908936" fy="189.579361" r="21.166656" gradientTransform="matrix(-0.000000261256,0.117199,0.210958,0.000000152308,-27.589573,-11.29122)">
<stop offset="0" style="stop-color:rgb(0%,0%,0%);stop-opacity:0.313725;"/>
<stop offset="0.222222" style="stop-color:rgb(0%,0%,0%);stop-opacity:0.27451;"/>
<stop offset="1" style="stop-color:rgb(0%,0%,0%);stop-opacity:0;"/>
</radialGradient>
<radialGradient id="radial2" gradientUnits="userSpaceOnUse" cx="450.908936" cy="189.579361" fx="450.908936" fy="189.579361" r="21.166656" gradientTransform="matrix(-0.000000261256,-0.117199,0.210958,-0.000000152308,-27.589573,95.392999)">
<stop offset="0" style="stop-color:rgb(0%,0%,0%);stop-opacity:0.313725;"/>
<stop offset="0.222222" style="stop-color:rgb(0%,0%,0%);stop-opacity:0.27451;"/>
<stop offset="1" style="stop-color:rgb(0%,0%,0%);stop-opacity:0;"/>
</radialGradient>
<radialGradient id="radial3" gradientUnits="userSpaceOnUse" cx="450.908936" cy="189.579361" fx="450.908936" fy="189.579361" r="21.166656" gradientTransform="matrix(0.000000261256,0.117199,-0.210958,0.000000152308,75.219126,-11.291219)">
<stop offset="0" style="stop-color:rgb(0%,0%,0%);stop-opacity:0.313725;"/>
<stop offset="0.222222" style="stop-color:rgb(0%,0%,0%);stop-opacity:0.27451;"/>
<stop offset="1" style="stop-color:rgb(0%,0%,0%);stop-opacity:0;"/>
</radialGradient>
<linearGradient id="linear1" gradientUnits="userSpaceOnUse" x1="323.513245" y1="-141.414581" x2="323.513245" y2="-25.791676" gradientTransform="matrix(0.113024,0,0,0.326118,-8.78102,50.462022)">
<stop offset="0" style="stop-color:rgb(81.176471%,84.705882%,86.27451%);stop-opacity:1;"/>
<stop offset="1" style="stop-color:rgb(92.54902%,93.72549%,94.509804%);stop-opacity:1;"/>
</linearGradient>
<linearGradient id="linear2" gradientUnits="userSpaceOnUse" x1="960" y1="495.118103" x2="960" y2="175.118134" gradientTransform="matrix(1,0,0,1,0,0)">
<stop offset="0" style="stop-color:rgb(29.803922%,68.627451%,31.372549%);stop-opacity:1;"/>
<stop offset="1" style="stop-color:rgb(40%,73.333333%,41.568627%);stop-opacity:1;"/>
</linearGradient>
</defs>
<g id="surface1">
<path style=" stroke:none;fill-rule:nonzero;fill:url(#linear0);" d="M 11.90625 42.050781 L 35.722656 42.050781 L 35.722656 44.035156 L 11.90625 44.035156 Z M 11.90625 42.050781 "/>
<path style=" stroke:none;fill-rule:nonzero;fill:url(#radial0);" d="M 35.722656 42.050781 L 39.691406 42.050781 L 39.691406 40.066406 L 35.722656 40.066406 Z M 35.722656 42.050781 "/>
<path style=" stroke:none;fill-rule:nonzero;fill:url(#radial1);" d="M 11.90625 42.050781 L 7.9375 42.050781 L 7.9375 44.035156 L 11.90625 44.035156 Z M 11.90625 42.050781 "/>
<path style=" stroke:none;fill-rule:nonzero;fill:url(#radial2);" d="M 11.90625 42.050781 L 7.9375 42.050781 L 7.9375 40.066406 L 11.90625 40.066406 Z M 11.90625 42.050781 "/>
<path style=" stroke:none;fill-rule:nonzero;fill:url(#radial3);" d="M 35.722656 42.050781 L 39.691406 42.050781 L 39.691406 44.035156 L 35.722656 44.035156 Z M 35.722656 42.050781 "/>
<path style=" stroke:none;fill-rule:nonzero;fill:url(#linear1);" d="M 9.921875 4.34375 L 37.707031 4.34375 C 38.804688 4.34375 39.691406 5.234375 39.691406 6.328125 L 39.691406 40.066406 C 39.691406 41.164062 38.804688 42.050781 37.707031 42.050781 L 9.921875 42.050781 C 8.828125 42.050781 7.9375 41.164062 7.9375 40.066406 L 7.9375 6.328125 C 7.9375 5.234375 8.828125 4.34375 9.921875 4.34375 Z M 9.921875 4.34375 "/>
<path style="fill-rule:nonzero;fill:url(#linear2);stroke-width:11.338583;stroke-linecap:round;stroke-linejoin:round;stroke:rgb(12.941177%,12.941177%,12.941177%);stroke-opacity:1;stroke-miterlimit:4;" d="M 399.961827 175.101398 C 355.714081 175.101398 319.969461 210.846018 319.969461 255.093763 L 319.969461 495.070859 L 1600.004772 495.070859 L 1600.004772 255.093763 C 1600.004772 210.846018 1564.260152 175.101398 1520.012406 175.101398 Z M 399.961827 175.101398 " transform="matrix(0.0248071,0,0,0.0248071,0,0)"/>
<path style=" stroke:none;fill-rule:nonzero;fill:rgb(94.117647%,38.431373%,57.254905%);fill-opacity:0.905882;" d="M 13.890625 21.214844 L 30.761719 21.214844 C 31.308594 21.214844 31.753906 21.597656 31.753906 22.070312 L 31.753906 22.339844 C 31.753906 22.8125 31.308594 23.199219 30.761719 23.199219 L 13.890625 23.199219 C 13.34375 23.199219 12.898438 22.8125 12.898438 22.339844 L 12.898438 22.070312 C 12.898438 21.597656 13.34375 21.214844 13.890625 21.214844 Z M 13.890625 21.214844 "/>
<path style=" stroke:none;fill-rule:nonzero;fill:rgb(0%,0%,0%);fill-opacity:0.196078;" d="M 9.921875 41.9375 C 8.824219 41.9375 7.9375 41.054688 7.9375 39.953125 L 7.9375 39.707031 C 7.9375 40.804688 8.824219 41.691406 9.921875 41.691406 L 37.707031 41.691406 C 38.804688 41.691406 39.691406 40.804688 39.691406 39.707031 L 39.691406 39.953125 C 39.691406 41.054688 38.804688 41.9375 37.707031 41.9375 Z M 9.921875 41.9375 "/>
<path style=" stroke:none;fill-rule:nonzero;fill:rgb(25.882354%,25.882354%,25.882354%);fill-opacity:0.905882;" d="M 13.890625 16.25 L 33.738281 16.25 C 34.285156 16.25 34.730469 16.574219 34.730469 16.976562 L 34.730469 17.511719 C 34.730469 17.914062 34.285156 18.234375 33.738281 18.234375 L 13.890625 18.234375 C 13.34375 18.234375 12.898438 17.914062 12.898438 17.511719 L 12.898438 16.976562 C 12.898438 16.574219 13.34375 16.25 13.890625 16.25 Z M 13.890625 16.25 "/>
<path style=" stroke:none;fill-rule:nonzero;fill:rgb(25.882354%,25.882354%,25.882354%);fill-opacity:0.905882;" d="M 13.890625 26.175781 L 33.738281 26.175781 C 34.285156 26.175781 34.730469 26.578125 34.730469 27.078125 L 34.730469 27.257812 C 34.730469 27.753906 34.285156 28.160156 33.738281 28.160156 L 13.890625 28.160156 C 13.34375 28.160156 12.898438 27.753906 12.898438 27.257812 L 12.898438 27.078125 C 12.898438 26.578125 13.34375 26.175781 13.890625 26.175781 Z M 13.890625 26.175781 "/>
<path style=" stroke:none;fill-rule:nonzero;fill:rgb(100%,100%,100%);fill-opacity:0.392157;" d="M 9.921875 4.457031 C 8.824219 4.457031 7.9375 5.339844 7.9375 6.441406 L 7.9375 6.6875 C 7.9375 5.589844 8.824219 4.703125 9.921875 4.703125 L 37.707031 4.703125 C 38.804688 4.703125 39.691406 5.589844 39.691406 6.6875 L 39.691406 6.441406 C 39.691406 5.339844 38.804688 4.457031 37.707031 4.457031 Z M 9.921875 4.457031 "/>
<path style=" stroke:none;fill-rule:nonzero;fill:rgb(12.941177%,12.941177%,12.941177%);fill-opacity:1;" d="M 9.921875 4.203125 C 8.746094 4.203125 7.796875 5.152344 7.796875 6.328125 L 7.796875 40.066406 C 7.796875 41.242188 8.746094 42.191406 9.921875 42.191406 L 37.707031 42.191406 C 38.882812 42.191406 39.832031 41.242188 39.832031 40.066406 L 39.832031 6.328125 C 39.832031 5.152344 38.882812 4.203125 37.707031 4.203125 Z M 9.921875 4.484375 L 37.707031 4.484375 C 38.730469 4.484375 39.550781 5.304688 39.550781 6.328125 L 39.550781 40.066406 C 39.550781 41.089844 38.730469 41.910156 37.707031 41.910156 L 9.921875 41.910156 C 8.898438 41.910156 8.078125 41.089844 8.078125 40.066406 L 8.078125 6.328125 C 8.078125 5.304688 8.898438 4.484375 9.921875 4.484375 Z M 9.921875 4.484375 "/>
<path style=" stroke:none;fill-rule:nonzero;fill:rgb(96.078432%,48.627451%,0%);fill-opacity:0.905882;" d="M 13.890625 31.136719 L 26.792969 31.136719 C 27.339844 31.136719 27.785156 31.480469 27.785156 31.902344 L 27.785156 32.351562 C 27.785156 32.777344 27.339844 33.121094 26.792969 33.121094 L 13.890625 33.121094 C 13.34375 33.121094 12.898438 32.777344 12.898438 32.351562 L 12.898438 31.902344 C 12.898438 31.480469 13.34375 31.136719 13.890625 31.136719 Z M 13.890625 31.136719 "/>
</g>
</svg>
